X: 20802
T: Johnny Murphy's
R: slide
M: 12/8
K: Gmajor
|:B2 c|d2 B g2 B d2 c A2 B|c2 c cfe d3 B2 c|
d2 B g2 B d2 c A2 B|c2 e d^cd G3:|
|:B2 c|d2 g gfg age d2 B|c2 c cfe d3 dBc|
d2 g gfg age d2 B|c2 A d^cd G3:|

